resources/svg/regular/bar-chart-square.svg

<svg xmlns="http://www.w3.org/2000/svg" fill="currentColor" stroke="none" viewBox="0 0 24 24"><path d="M3 5v14c0 1.103.897 2 2 2h14c1.103 0 2-.897 2-2V5c0-1.103-.897-2-2-2H5c-1.103 0-2 .897-2 2zm16.001 14H5V5h14l.001 14z"/><path d="M11 7h2v10h-2zm4 3h2v7h-2zm-8 2h2v5H7z"/></svg>

<svg xmlns="http://www.w3.org/2000/svg" fill="currentColor" stroke="none" viewBox="0 0 24 24"><path d="M3,5v14c0,1.103,0.897,2,2,2h14c1.103,0,2-0.897,2-2V5c0-1.103-0.897-2-2-2H5C3.897,3,3,3.897,3,5z M19.001,19H5V5h14 L19.001,19z"/><path d="M11 7H13V17H11zM15 10H17V17H15zM7 12H9V17H7z"/></svg>
